X:1
T:Störl, 87.87.77
T:Johann Georg Christian Störl, 1744
T:Störl, 87.87.77
T:Public Domain
C:Johann Georg Christian St&#246;rl, 1744
Z:Public Domain
%%score ( 1 2 ) ( 3 4 )
L:1/8
M:4/4
K:A
V:1 treble 
V:2 treble 
V:3 bass 
V:4 bass 
V:1
 [CE]2 (AG) [DF]2 (FE) | [^DF]2 (BA) [EG]2 E2 | [EA]2 [EB]2 [Ec]2 (dc) | [FB]2 (ED) [CA]4 | %4
 E2 (AG) [DF]2 [CF]2 | F2 (BA) [EG]2 E2 | [EB]2 [Ec]2 (C^D) [EG]2 | [EF]2 [^DF]2 E4 | %8
 [EB]2 [Ec]2 [Ed]2 [Ec]2 | [FB]2 (BA) [EG]4 | [Ee]2 (dc) [B,B]2 [Ec]2 | B2 z D [CA]4 |] %12
V:2
 x2 E2 x F2 x | x2 F2 x4 | x6 A2 | x2 B2 x4 | x2 C2 x4 | F2 F2 x4 | x4 A2 x2 | x4 E4 | x8 | %9
 x2 ^D2 x4 | x2 F2 x4 | E3 B2 x3 |] %12
V:3
 [A,,A,]2 [C,A,]2 [D,A,]2 (D,C,) | [B,,B,]2 [^D,B,]2 [E,B,]2 [E,G,]2 | %2
 [C,A,]2 [E,G,]2 A,2 [F,A,]2 | [D,A,]2 [E,G,]2 [A,,A,]4 | [C,A,]2 [A,,A,]2 [D,A,]2 (F,E,) | %5
 [^D,B,]2 (^DC) [E,B,]2 [E,G,]2 | [E,G,]2 [C,G,]2 [F,A,]2 (G,,A,,) | B,,2 z A, [E,G,]4 | %8
 E,D, [C,A,]2 (F,G,)(A,,C,) | [^D,B,]2 [B,,B,]2 [E,B,]4 | [C,A,]2 [D,A,]2 [E,G,]2 (C,D,) | %11
 [E,A,]2 [E,G,]2 [A,,A,]4 |] %12
V:4
 x6 A,2 | x8 | x8 | x8 | x6 ^A,2 | x2 B,,2 x4 | x6 B,2 | B,3 B,,2 x3 | G,2 x B,,2 A,2 x | x8 | %10
 x6 A,2 | x8 |] %12

